X: 5
T: The Boy In The Gap
R: reel
M: 4/4
L: 1/8
K: Dmaj
FE|D2FA dedc|~A2GE =cEGE|EDFA dedc|~A2GE EDFE|
D2FA dedc|~A2GE =cEGE|EDFA dfed|cAGE ED||
Dg|effg fedf|egfe edcA|~A2 (3Bcd edcd|eaag eaag|
effg fedf|~g2fg edcA|~A2 (3Bcd (3ege dc|ABGE ED:|
FA|df~f2 df~f2|ceef (3gfe ce|dffe ~f2fg|afge fdde|
fdec dcAF|G2AF GFEF|DEFA dedc|ABGE ED:|


Tune 1579	Setting 14987

